X:1
L:1/8
Q:3/8=100
M:6/8
K:Emin
 (G/F/EE) E2 F | GEG e2 g | dBd e2 g | dBd e2 g | (G/F/EE) E2 F | GEG e2 g | (d/c/BB) (c/B/AA) | 
 (G/F/EE) E3 :: (d/c/BB) B2 d | (=f/e/d)(f e2) a | (c/B/AA) A2 c | (e/d/c)(e d2) g | 
 (G/F/EE) (c/B/AA) | E/F/DD B2 g | (d/c/BB) (c/B/AA) | (G/F/EE) E3 :|
